X: 1
T: The Kinnegad Slashers
T: Barley Meal
R: jig
M: 6/8
L: 1/8
K: D
(3A/B/c/ \
| "D"ded dAF | "A7"ABA ABc | "D"ded dAF | "A7"Eee e2f \
| "D"ded dAF | "A7"ABA Aag | "D"fef dBA | "G"Bdd "D"d2 :|
|: A \
| "D"dfa afd | "A7"cde ecA |  "D"dfa afd | "A7"faa a2A \
| "D"dfa afd | "A7"cde eag | "D"fef dBA | "G"Bdd "D"d2 :|
